!!!COM: Bach, Johann Sebastian
!!!CDT: 1685/3/-1750/7/28
!!!OPR@@DE: Das wohltemperierte Klavier
!!!OPR@EN: The Well-Tempered Clavier
!!!OTL: The Well-Tempered Clavier, Book 2, Fugue 2 in C minor
!!!SCT: BWV 871b
!!!parts: 4
!!!RNB: The texture increases to five voices in the final two measures.
**kern	**kern	**kern	**kern
*staff2	*staff2	*staff1	*staff1
*clefF4	*clefF4	*clefG2	*clefG2
*k[b-e-a-]	*k[b-e-a-]	*k[b-e-a-]	*k[b-e-a-]
*M4/4	*M4/4	*M4/4	*M4/4
*c:	*c:	*c:	*c:
*MM50	*MM50	*MM50	*MM50
=1	=1	=1	=1
1r	1r	8r	1r
.	.	8g	.
.	.	8e-L	.
.	.	8fJ	.
.	.	8gL	.
.	.	8cJ	.
.	.	8fL	.
.	.	16e-	.
.	.	16dJ	.
=2	=2	=2	=2
1r	1r	4e-	8r
.	.	.	8cc
.	.	8dL	8b-L
.	.	8cJ	8ccJ
.	.	4B-	8ddL
.	.	.	8gJ
.	.	4Anm	8ccL
.	.	.	16b-
.	.	.	16anJ
=3	=3	=3	=3
1r	1r	8G	4b-
.	.	4g	.
.	.	.	4a-
.	.	4f	.
.	.	.	8gL
.	.	4e-	8ccJ
.	.	.	[4f
.	.	16dL	.
.	.	16cJ	.
=4	=4	=4	=4
1r	8r	4Bn	8f]L
.	8G	.	16e-
.	.	.	16dJ
.	8E-L	2c	8gL
.	8FJ	.	8fJ
.	8GL	.	4e-
.	8CJ	.	.
.	8FL	4Bn	4d
.	16E-	.	.
.	16DJ	.	.
=5	=5	=5	=5
1r	16E-L	4c	8cL
.	16G	.	.
.	16C	.	8gJ
.	16DJ	.	.
.	16E-L	8r	[4cc
.	16F	.	.
.	16G	8e-	.
.	16AnJ	.	.
.	16B-L	16dL	8cc]L
.	16d	16f#	.
.	16G	8gJ	16b-
.	16AJ	.	16ccJ
.	16B-L	4r	16ddL
.	16c	.	16een
.	16d	.	16ffn
.	16enJ	.	16ggJ
=6	=6	=6	=6
1r	8fL	2r	16aa-L
.	.	.	16ff
.	8A-J	.	16ccc
.	.	.	16bb-J
.	8FL	.	16aa-L
.	.	.	16gg
.	8A-J	.	16ff
.	.	.	16ee-J
.	8B-	8r	16ddL
.	.	.	16b-
.	8r	8d	16ff
.	.	.	16ee-J
.	4r	8B-L	16ddL
.	.	.	16cc
.	.	8dJ	16b-
.	.	.	16a-J
=7	=7	=7	=7
1r	8r	16e-L	8g
.	.	16c	.
.	8C	16a-	8r
.	.	16gJ	.
.	8BBnL	16fL	4r
.	.	16e-	.
.	8CJ	16d	.
.	.	16cJ	.
.	8DL	16BnL	2r
.	.	16f	.
.	8GGJ	16e-	.
.	.	16dJ	.
.	8CL	16e-L	.
.	.	16a-	.
.	16BB	16g	.
.	16AAnJ	16fJ	.
=8	=8	=8	=8
1r	8BBnL	16ddL	8r
.	.	16cc	.
.	8GGJ	[8ddJ	16r
.	.	.	16gg
.	8CL	16dd]L	8.ee-L
.	.	16bn	.
.	8AA-J	[8ccJ	.
.	.	.	16ffJ
.	8.EE-L	16cc]L	8ggL
.	.	16b	.
.	.	[8ccJ	8ccJ
.	16A-J	.	.
.	8DL	16cc]L	8ffL
.	.	8.bJ	.
.	8GJ	.	16ee-
.	.	.	16ddJ
=9	=9	=9	=9
1r	8.CL	16ccL	8ee-L
.	.	16g	.
.	.	[8a-J	8a-J
.	16FJ	.	.
.	8BB-L	16a-]L	8dd-L
.	.	[8.gJ	.
.	8E-J	.	16cc
.	.	.	16b-J
.	8.AA-L	16g]L	8ccL
.	.	16en	.
.	.	[8fJ	8fJ
.	16D-J	.	.
.	8GGL	16f]L	8b-L
.	.	8.eJ	.
.	8CJ	.	16a-
.	.	.	16gJ
=10	=10	=10	=10
1r	16FFL	8fL	8.a-L
.	16C	.	.
.	[8FJ	8cJ	.
.	.	.	16a-J
.	16F]L	8BnL	8dL
.	16E-	.	.
.	16D	8cJ	8e-J
.	16CJ	.	.
.	16BBnL	8dL	8f
.	16GG	.	.
.	16C	8GJ	4e-
.	16BB-J	.	.
.	16AA-L	8cL	.
.	16C	.	.
.	8DDJ	16Bn	[8f
.	.	16AnJ	.
=11	=11	=11	=11
1r	8.EE-L	16GL	8f]L
.	.	16Bn	.
.	.	[8cJ	8e-J
.	16CCJ	.	.
.	8FFL	16c]L	8.a-L
.	.	16c	.
.	8BB-J	[8dJ	.
.	.	.	16a-J
.	8BBnL	16d]L	8.gL
.	.	16d	.
.	8CJ	[8e-J	.
.	.	.	16gJ
.	8AA-L	16e-]L	8.ccL
.	.	16f	.
.	8BB-J	8g-J	.
.	.	.	[16b-J
=12	=12	=12	=12
1r	8CL	8enL	16b-]L
.	.	.	16b-
.	8FFJ	16r	[8a-J
.	.	16fJ	.
.	8BB-L	[4d-	16a-]L
.	.	.	16g
.	16AA-	.	16a-
.	16GGJ	.	16b-J
.	8AA-L	16d-]L	8enL
.	.	16c	.
.	16A-	[8fJ	16r
.	16FJ	.	16a-J
.	8B-L	16f]L	8.dd-L
.	.	16g	.
.	8cJ	8a-J	.
.	.	.	[16ccJ
=13	=13	=13	=13
1r	8DL	8f#L	16cc]L
.	.	.	16cc
.	8GJ	16r	[8b-J
.	.	16gJ	.
.	8CL	[4e-	16b-]L
.	.	.	16an
.	16BB-	.	16b-
.	16AAnJ	.	16ccJ
.	8BB-L	16e-]L	8f#L
.	.	8d	.
.	8E-J	.	[8gJ
.	.	16cJ	.
.	8CL	8B-L	16g]L
.	.	.	8g
.	8DJ	8AnJ	.
.	.	.	16f#J
=14	=14	=14	=14
1r	8GG	8G	8gL
.	8r	8r	8ggJ
.	4r	4g	8ee-L
.	.	.	8ffJ
.	2r	4e-	8ggL
.	.	.	8ccJ
.	.	4f	8ffL
.	.	.	16ee-
.	.	.	16ddJ
=15	=15	=15	=15
1r	8r	4g	16ee-L
.	.	.	16dd
.	8G	.	16cc
.	.	.	16bnJ
.	8A-L	4c	16ccL
.	.	.	16ee-
.	8GJ	.	16ff
.	.	.	16ggJ
.	8FL	4f	16aa-L
.	.	.	16cc
.	8dJ	.	16b
.	.	.	16anJ
.	8GL	8e-L	16bL
.	.	.	16gg
.	16An	8dJ	16ff
.	16BnJ	.	16ggJ
=16	=16	=16	=16
1r	16cL	8e-L	8ee-
.	16d	.	.
.	16e-	8ccJ	8r
.	16fJ	.	.
.	16gL	8b-L	4r
.	16e-	.	.
.	16d	8ccJ	.
.	16cJ	.	.
.	16B-L	8ddL	8r
.	16An	.	.
.	[8B-J	8gJ	8gg
.	16B-]L	8ccL	8eenL
.	16An	.	.
.	16d	16b-	8ff#J
.	16cJ	16anJ	.
=17	=17	=17	=17
1r	16B-L	8b-L	8ggL
.	16G	.	.
.	8cJ	16a-	8ccJ
.	.	16gJ	.
.	8AnL	16ccL	8ffL
.	.	16c	.
.	8BnJ	[8gJ	16ee-
.	.	.	16ddJ
.	8cL	16g]L	8.ee-L
.	.	16g	.
.	8FJ	8anJ	.
.	.	.	16ee-J
.	8B-L	16b-L	8ddL
.	.	16cc	.
.	16A-	8dd-J	8eenJ
.	16GJ	.	.
=18	=18	=18	=18
1r	8AnL	16r	8ffL
.	.	16ccL	.
.	[8dJ	16b-	8b-J
.	.	16a-J	.
.	16d]L	8gL	8ee-L
.	16c	.	.
.	16f	8anJ	16dd
.	16e-J	.	16ccJ
.	16dL	8b-L	8ddL
.	16c	.	.
.	[8d-J	8e-J	8gJ
.	16d-]L	8a-L	[4ee-
.	16c	.	.
.	16B-	16g	.
.	16A-J	16fJ	.
=19	=19	=19	=19
4r	8B-L	8.gL	16ee-]L
.	.	.	16ee-
.	8BnJ	.	[8ddJ
.	.	16fJ	.
4G	8cL	8e-L	16dd]L
.	.	.	16cc
.	8dJ	8dJ	8bnJ
4E-	16GL	8cL	8ccL
.	16c	.	.
.	16B	8ee-J	8ggJ
.	16cJ	.	.
4F	16cL	4a-	8ddL
.	16B	.	.
.	[8cJ	.	16ee-
.	.	.	16ffJ
=20	=20	=20	=20
4G	8c]L	16r	8ee-L
.	.	8gL	.
.	8BnJ	.	8ddJ
.	.	16fJ	.
4C	[4c	8e-L	16r
.	.	.	8ccL
.	.	8enJ	.
.	.	.	16b-J
4F	8c]L	16r	8.a-L
.	.	16fL	.
.	8BnJ	8dJ	.
.	.	.	16a-J
8E-L	8.cL	16r	[4g
.	.	16e-L	.
8DJ	.	[8fJ	.
.	[16BJ	.	.
=21	=21	=21	=21
8.E-L	16B]L	8f]L	4g]
.	16G	.	.
.	[8cJ	[8e-J	.
16GJ	.	.	.
8A-L	8c]L	16e-]L	[2cc
.	.	16en	.
8GJ	8B-J	16f	.
.	.	16gJ	.
8FL	16A-L	4a-	.
.	16g	.	.
8dJ	16f	.	.
.	16e-J	.	.
8GL	[4d	8gL	16cc]L
.	.	.	16bn
16An	.	[8fJ	16cc
16BnJ	.	.	16ddJ
=22	=22	=22	=22
8cL	8d]L	16f]L	8gL
.	.	8e-	.
8CJ	8cJ	.	8a-J
.	.	[16fJ	.
8BBnL	8dL	16f]L	8.gL
.	.	16f	.
8CJ	8cJ	8e-J	.
.	.	.	16anJ
8DL	8F	16r	8b-L
.	.	16fL	.
8GGJ	4G	16e-	8bnJ
.	.	16dJ	.
8CL	.	4e-	16r
.	.	.	16gL
16BB	8An	.	16cc
16AAnJ	.	.	16f#J
=23	=23	=23	=23
8BBnL	4G	16r	8gL
.	.	8dL	.
8CJ	.	.	8dJ
.	.	[16cJ	.
8FFL	8r	16c]L	4d
.	.	16An	.
8GGJ	16r	8BnJ	.
.	16F	.	.
8CC	8E-	8cL	8c
8r	8r	8gJ	8r
4r	4r	8e-L	8r
.	.	8fJ	8cc
=24	=24	=24	=24
2r	8r	8gL	8bnL
.	8e-	8cJ	8ccJ
.	8BnL	8fL	8ddL
.	8cJ	16e-	8gJ
.	.	16dJ	.
8C	8G	8enL	8ccL
8r	8r	8fJ	16b-
.	.	.	16a-J
4r	4r	8gL	8b-L
.	.	16f	8ccJ
.	.	16eJ	.
=25	=25	=25	=25
2r	8r	8fL	8a-L
.	8d-	8gJ	8b-J
.	8GL	8enL	8ccL
.	8A-J	8fJ	8fJ
8C	8EnL	8gL	8b-L
8r	8cJ	8cJ	16a-
.	.	.	16gJ
4r	8A-L	8fL	8a-L
.	8B-J	16e	[8gJ
.	.	16dJ	.
=26	=26	=26	=26
8r	8cL	8enL	8g]L
*	*	*	*strophe
*	*	*	*^
*	*	*	*S/sic	*S/ossia
8C	8FJ	8e-J	16anxx	32anxx
.	.	.	.	32b-xx
.	.	.	32b-xx	16ccxxJ
.	.	.	32ccxxJ	.
*	*	*	*v	*v
*	*	*	*Xstrophe
8D-L	8B-L	8d-L	8fL
8CJ	16A-	8e-J	8ccJ
.	16GJ	.	.
8BBnL	8A-L	8fL	8ddnL
8FJ	8GJ	16e-	16cc
.	.	16dnJ	16bnJ
16E-L	8GL	8e-L	4cc
16Dn	.	.	.
16C	8e-J	8gJ	.
32D	.	.	.
32E-J	.	.	.
=27	=27	=27	=27
!! Five voices:
*	*	*^	*
4FF#	4r	4r	4r	16r
.	.	.	.	16ddL
.	.	.	.	16ee-
.	.	.	.	16bnJ
4r	8.r	16r	8r	[4cc
.	.	[8.an	.	.
.	.	.	[8f#	.
.	16d	.	.	.
16r	4e-	4a]	4f#]	4cc]
16BnL	.	.	.	.
16c	.	.	.	.
16F#J	.	.	.	.
8GL	8r	8r	8r	8r
8GGJ	8d	8g	8fn	8b
=28	=28	=28	=28	=28
1CC 1C	1c	1g	1e-	1cc
==	==	==	==	==
*-	*-	*-	*-	*-
!!!OTA: Das wohltemperirte Clavier
!!!OCY: Deutschland
!!!PPP: Leipzig
!!!ODT: 1738//-1739//
!!!PDT: 1739//-1742//
!!!AFR: fuga; fugue
!!!AST: polyphony
!!!AMT: simple quadruple
!!!SCA: Bach-Werke-Verzeichnis
!!!YOR: Bach-Gesellschaft Ausgabe, Band 14
!!!YOO: Breitkopf und Härtel
!!!YOY: 1866
!!!YOE: Franz Kroll (1820-1877)
!!!AIN: cemba; clavi
!!!YEC: Copyright 1994, David Huron
!!!YEM: Rights to all derivative electronic formats reserved.
!!!ENC: David Huron
!!!END: 1986/11/25
!!!EED: David Huron
!!!YER: 1994/08/10
!!!EED2: Craig Stuart Sapp (notational niceties)
!!!EEV: 2020/09/19
!!!EFL: 26/48
